-----BEGIN PGP PUBLIC KEY BLOCK-----

mQINBGp8FqoBEACiS62ms7roEO5ycdc1tNxSFtiomqBX5g4NCIdUvcNN/9wn/g6e
rbXrUlTmxGXxD6HXSNwxsV3/3kkVO8+KHhiaJp0gSR06OVMfTYxck+cHuGORPk0C
zeBkIo4xsTnugnype4JCDKUauteNbLAy5gItqTaJAuL2+xaX34ZP7H0xh3TJPLXy
stVtaiZ1UVlyD8tUqxtbxNK4rRjt4gRZseJpsU5P/s4K8/0qMTt3DjmtYNaihhDy
aFRiWOKNyBVK8cIxs3GKWwFNetCbXM6WK3w7T186PPbrEhFpJo6CJ7qTeAIyR4fW
9Fk8rqa+laPjI05ytHzovWpqBgU+2HsmAWdUZg2/ODu31SFx1DiJpgJdw/apVYJq
ircv5TTGtWhV5ma1xY0zpccFWIPLEtfMrt9vJtSQrCytnSN8ekQEUFvHZh2N63Sp
xKSNdyhIU4rLxzCkjaqOY0oAjFSseFaMn7uKlksw5a8em6dznXTgUif2h6YnOnur
7R1GtIzC/8OdPUBCYsd6cDKR39/ofLH2Ut6emQ6XgE0Lo8KijN0e/4bTmM+ZGe8A
zT2MObqEen2YtjND0o6IeTuOB4T4VhRF4q0vTFaoVweX0bWclSj+gAaSLVv6sqcf
JqyaywL0Or8uAR2O/pBJJxfRvNyOehxW56eo9Tswc6jzHnq5JBDp14y7zQARAQAB
tElCdXJzdCBEb3dubG9hZCBSZWxlYXNlIChSZWxlYXNlIHNpZ25pbmcga2V5KSA8
cmVsZWFzZUBidXJzdC1kb3dubG9hZC5kZXY+iQJRBBMBCgA7FiEEHF/zsXohajIa
4XVmSo5hAid0gkwFAmp8FqoCGwMFCwkIBwICIgIGFQoJCAsCBBYCAwECHgcCF4AA
CgkQSo5hAid0gkyn+w/8DHnwGVQkDApjDHUJSaab3+/ePp7nK2i/Z+BDpIEROVjP
D16moWrwIOUX0eR7EH43l6aHsVdDRiEecBK+YlVapvb/XiIWrQYz3VhbNerUuzG4
8dkoHvOwJj5vq8Nyd1raNq6jbKGnfteHvpoQIu7V7JY9dGoSLhSpSugSXpmy9Daq
9MoxtSEVGZBsiLrSnUhCch/Ay/3iPiIB0obZTThZXIuHLaD2reAtvyQVS0UCoXqn
fh4UY8W7MttSvNchdmWBN/2LLaMHs5bsxGSgc40nhNfp9gJfX861pNq9fjXqZo03
fpzI4yjIzVDsczpNX2i+24NDkytAbmhyy00oJDfjueyqVvGJGTU19dGWbXKcNmcZ
dxE8q3o+bV17lbFKhaNeJeOoqCFABRo12RM3oh9nSkc8zMiNoeG9z5j+rk1cPTf1
+1lx2tIfO4QxEw3djm64jX2fw7dOAH3qxOcwMoHm2qldoEjEaL3zYgqVgu+t99XV
zNb1OZnSXttZF70iXt8DZXblvAx2VBp8yB6u9y78QGJk/oGzWg2vEd0HogLnvFAv
eMx2/h9m5BA4bCVYcm/T0IyUOefFjSbT7cBjc6DcGBADbTh5W140eTRcXen/Y2RY
MhuXbaKzFtu+dmEmL9dV3R0aoWqXsvggBcb6r/4mh/4fw+t+JWX69TLSllWjxS0=
=niZF
-----END PGP PUBLIC KEY BLOCK-----
